smart-lab/build/images/icons/footer/vk.svg

<svg width="16" height="16" viewBox="0 0 16 16" fill="none" xmlns="http://www.w3.org/2000/svg">
<path fill-rule="evenodd" clip-rule="evenodd" d="M7.84961 11.931H8.68654C8.68654 11.931 8.93934 11.9038 9.06768 11.7685C9.18746 11.644 9.18357 11.4107 9.18357 11.4107C9.18357 11.4107 9.16724 10.3171 9.68838 10.1561C10.2017 9.99739 10.8613 11.2123 11.5606 11.6806C12.0895 12.0337 12.4916 11.9567 12.4916 11.9567L14.3615 11.931C14.3615 11.931 15.3392 11.8719 14.8749 11.1237C14.8375 11.0622 14.605 10.5699 13.4849 9.55714C12.3127 8.49775 12.4699 8.66887 13.8816 6.83555C14.7419 5.71937 15.0857 5.038 14.9783 4.74632C14.8757 4.46786 14.2433 4.54175 14.2433 4.54175L12.1377 4.5542C12.1377 4.5542 11.9822 4.5332 11.8655 4.60087C11.7535 4.66698 11.6812 4.82099 11.6812 4.82099C11.6812 4.82099 11.3467 5.68437 10.9033 6.41941C9.96606 7.96961 9.59037 8.05128 9.43714 7.95483C9.0809 7.73082 9.16957 7.05411 9.16957 6.57342C9.16957 5.07067 9.40447 4.44453 8.71455 4.28196C8.48587 4.22907 8.31864 4.19329 7.73216 4.18707C6.98078 4.17929 6.34531 4.1894 5.98517 4.3613C5.74561 4.47486 5.56048 4.72999 5.67405 4.74399C5.8125 4.76265 6.12752 4.82721 6.29475 5.04889C6.5102 5.33435 6.5032 5.97605 6.5032 5.97605C6.5032 5.97605 6.62765 7.74482 6.21308 7.96494C5.92917 8.11506 5.54026 7.80782 4.7041 6.40152C4.2763 5.68048 3.95273 4.88477 3.95273 4.88477C3.95273 4.88477 3.8905 4.73543 3.77928 4.65609C3.6814 4.5926 3.57198 4.54899 3.45726 4.52775L1.45515 4.54175C1.45515 4.54175 1.15569 4.54953 1.04602 4.67709C0.947232 4.78988 1.03824 5.024 1.03824 5.024C1.03824 5.024 2.60399 8.59264 4.37742 10.391C6.00384 12.0399 7.85039 11.931 7.85039 11.931" fill="white"/>
</svg>

<svg width="16" height="16" fill="none" xmlns="http://www.w3.org/2000/svg"><path fill-rule="evenodd" clip-rule="evenodd" d="M7.85 11.931h.837s.252-.027.38-.162c.12-.125.117-.358.117-.358s-.017-1.094.504-1.255c.514-.159 1.173 1.056 1.873 1.525.528.353.93.276.93.276l1.87-.026s.978-.06.514-.807c-.037-.062-.27-.554-1.39-1.567-1.172-1.06-1.015-.888.397-2.721.86-1.117 1.204-1.798 1.096-2.09-.102-.278-.735-.204-.735-.204l-2.105.012s-.156-.02-.272.047a.578.578 0 00-.185.22s-.334.863-.778 1.598C9.966 7.97 9.59 8.051 9.437 7.955c-.356-.224-.267-.9-.267-1.382 0-1.502.234-2.128-.455-2.291-.23-.053-.396-.089-.983-.095-.751-.008-1.387.002-1.747.174-.24.114-.425.369-.311.383.138.019.454.083.62.305.216.285.21.927.21.927s.124 1.769-.29 1.989c-.285.15-.674-.157-1.51-1.563-.428-.722-.751-1.517-.751-1.517s-.063-.15-.174-.229a.89.89 0 00-.322-.128l-2.002.014s-.3.008-.409.135c-.099.113-.008.347-.008.347s1.566 3.569 3.34 5.367c1.626 1.649 3.472 1.54 3.472 1.54" fill="#fff"/></svg>
